X:1
T:Lawson's favorite
M:C|
L:1/8
Q:1/2=108
R:Reel
Z:Brenda Holloway 
K:DMix
|: d2 AG FDDF | (3EFG AB c2 Bc | (3dcB (3cBA BGAG |1 FGEF Dgfe :|2 FGEF DBde :|
|: fd (3ddd fdad | ec {d}(3cBc efge | fd (3ddd fdad  | (3fga eg fdd>e |
|  fd (3ddd fdad | ec {d}(3cBc cdeg | (3agf ge fde^c |  Agfe defe :|
